X: 5
T: Muiñeira De Cabana
Z: JACKB
S: https://thesession.org/tunes/437#setting47117
R: jig
M: 6/8
L: 1/8
K: Emin
e2^d|:BcB AFA|GFE E^DE|FGA Bcd|c2B e2^d|
BcB AFA|GFE E^DE|FGA AGF|1 E3 e2^d:|2 E3 EFG||
|:E3 E^DE|F3 FGA|B2G A2F|GFE EFG|
E3 E^DE|F3 FGA|BcB AGF|1 E3 EFG:|2 E3 ^GAB||
|:B^GE =cA=c|B^GE ^GFE|^DEF =cB=c|B^GE ^GAB|
B^GE =cB=c|B^GE ^GFE|^D=cB A^GF|1 E3 ^GAB:|2 E3 B3|c3 B3|E6|E||

